X:1
T: Cairntoul
C:Alexander Walker
R:Reel
Q: 232
K:G
M:4/4
L:1/8
|:F|G2 DG B,G, G,B,|CE DB, EA FD|G2 DG B,G, G,c|EA FD G3F|
G2 DG B,G, G,B,|CE DB, EA FD|G2 DG B,G, G,c|EA FD G3c|
BG Bd g2 gf|ed cB AG FD|BG Bd g2 gf|ed ce d2 dc|
BG Bd g2 gf|ed cB AG FD|G2 DC B,C Dc|BG AF G3:|
